X:194
T:Jim Ward's Jig
Z:Jack Campin, http://www.campin.me.uk/
F:Jack Campin's Nine-Note Tunebook
% last edit 03-02-2013
M:6/8
L:1/8
Q:3/8=112
N:the standard key
K:G
D|G3  GAB|AGE GED|G2G AGE|GED DEF|
  G3  GAB|AGE GAB|cBA BGE|DED D2:|
B|cBA BAG|ABA AGB|cBA BGE|DED D2B|
  cBA BAG|ABA ABc|dcB AGE|GED D2:|

